X:2704
T:Grey Eagle (h) % hoc<bb
B:HOC.061
Z: Contributed 2016-03-09 15:27:51 by Jim Gaskins  fiddleji@comcast.net
K:
%31grey
M:2/4
L:1/16 % with "snap"
R:hornpipe
Q:300
K:A
cB|AFFA EFEC|EAcA BAcB|AFFA EFEC|[A,E]AcB A2cB |
AFFA EFEC|EAcA B2c2|e2cA BAFA|EAcB A2 :|
f2|eAcA eAfA|eAce fgaf|eAcA eagf|edcB A2f2 |
eAcA eAfA|ecde g2eg|agfe fga2|B2A2 FA :|
